X:1
T:Sheppard, 87.87 D
T:Sheppard, 87.87 D
T:Ira David Sankey, 1887
T:Public Domain Courtesy of the Cyber Hymnal™
C:Ira David Sankey, 1887
Z:Public Domain
Z:Courtesy of the Cyber Hymnal™
%%score ( 1 2 ) ( 3 4 )
L:1/8
Q:1/4=108
M:6/8
K:Db
V:1 treble 
V:2 treble 
V:3 bass 
V:4 bass 
V:1
 [DF]2 [EG] [FA]2 [FA] | (AB)[Ac] [Ad]2 [Ad] | [Ge]2 [Gd] [Gc]2 [GB] | [FA]2 [CE] [DF]3 | %4
 [DF]2 [EG] [FA]2 [FA] | (AB)[Ac] [Ad]2 [Fd] | ed[GB] [FA]2 [Fd] | ([Ec][Fd])[Ge] [Fd]3 | %8
 [Ge]2 [Fd] (cB)[Gc] | [Fd]2 [GB] [FA]2 [Fd] | [Ge]2 [Fd] (cB)[Gc] | [Fd]2 [E=G] (A2 _G) | %12
 [DF]2 [EG] [FA]2 [Af] | [Ge]2 [Gd] (Bc)[Gd] | A2 [FA] [DB]2 [Ed] | ([Ec][Fd])[Ge] [Fd]3 |] %16
V:2
 x6 | G2 x4 | x6 | x6 | x6 | G2 x4 | G2 x4 | x6 | x3 G2 x | x6 | x3 G2 x | x3 E3 | x6 | x3 G2 x | %14
 A2 x4 | x6 |] %16
V:3
 [D,A,]2 [D,A,] [D,D]2 [D,D] | (CD)[G,E] [F,D]2 [F,D] | [G,B,]2 [G,B,] [G,B,]2 [G,D] | %3
 A,2 [A,,A,] [D,A,]3 | [D,A,]2 [D,A,] [D,D]2 [D,D] | (CD)[G,E] [F,D]2 [D,D] | %6
 [G,B,]2 [G,D] [D,D]2 [D,A,] | A,2 [A,,A,] [D,A,]3 | [A,C]2 [A,D] (ED)[A,E] | %9
 [D,D]2 [D,D] [D,D]2 [D,A,] | [A,C]2 [A,D] (ED)[A,E] | [D,D]2 [E,D] [A,,C]3 | %12
 [D,A,]2 [D,A,] [D,D]2 [D,_C] | [G,B,]2 [G,B,] (D=A,)[G,B,] | [F,D]2 [D,D] [G,D]2 [G,B,] | %15
 A,2 [A,,C] [D,D]3 |] %16
V:4
 x6 | A,2 x4 | x6 | A,2 x4 | x6 | A,2 x4 | x6 | A,2 x4 | x3 A,2 x | x6 | x3 A,2 x | x6 | x6 | %13
 x3 G,2 x | x6 | A,2 x4 |] %16

